X:1
T: Nos Galan
T:Deck the Halls
M:2/4
L:1/8
Z:Jeff Flatters 2004
N: The translation is New Year’s Eve
K:G
d>c BA | GG/A/ BG | A/B/c/A/ B>A | GF G2 :||
AA/B/ cA | B/A/B/c/ dA | B/A/B/c/ dg | fe d2 |
d>c BA | GG/A/ BG | A/e/c/A/ d>c | BA G2 |]
